svgs/sharp-thin/calendar-circle-minus.svg

<svg xmlns="http://www.w3.org/2000/svg" viewBox="0 0 576 512"><!--! Font Awesome Pro 6.6.0 by @fontawesome - https://fontawesome.com License - https://fontawesome.com/license (Commercial License) Copyright 2024 Fonticons, Inc. --><path d="M128 8l0-8L112 0l0 8 0 56L16 64 0 64 0 80l0 96 0 16L0 496l0 16 16 0 314.8 0c-6.9-4.9-13.5-10.2-19.6-16L16 496l0-304 336 0 80 0 16 0 0-16 0-96 0-16-16 0-96 0 0-56 0-8L320 0l0 8 0 56L128 64l0-56zM112 80l0 40 0 8 16 0 0-8 0-40 192 0 0 40 0 8 16 0 0-8 0-40 96 0 0 96L16 176l0-96 96 0zM432 240a128 128 0 1 1 0 256 128 128 0 1 1 0-256zm0 272a144 144 0 1 0 0-288 144 144 0 1 0 0 288zm80-136l0-16-8 0-144 0-8 0 0 16 8 0 144 0 8 0z"/></svg>

<svg xmlns="http://www.w3.org/2000/svg" viewBox="0 0 576 512"><!--! Font Awesome Pro 6.5.2 by @fontawesome - https://fontawesome.com License - https://fontawesome.com/license (Commercial License) Copyright 2024 Fonticons, Inc. --><path d="M128 8V0H112V8 64H16 0V80v96 16V496v16H16 330.8c-6.9-4.9-13.5-10.2-19.6-16H16V192H352h80 16V176 80 64H432 336V8 0H320V8 64H128V8zM112 80v40 8h16v-8V80H320v40 8h16v-8V80h96v96H16V80h96zM432 240a128 128 0 1 1 0 256 128 128 0 1 1 0-256zm0 272a144 144 0 1 0 0-288 144 144 0 1 0 0 288zm80-136V360h-8H360h-8v16h8H504h8z"/></svg>
